app/component-library/components/Icons/Icon/assets/timer.svg

<svg width="24" height="24" viewBox="0 0 24 24" fill="none" xmlns="http://www.w3.org/2000/svg">
<path d="M17.6717 15.67L13.6317 12H10.9217L6.88172 15.67C5.75172 16.69 5.38172 18.26 5.93172 19.68C6.48172 21.09 7.82172 22 9.33172 22H15.2217C16.7417 22 18.0717 21.09 18.6217 19.68C19.1717 18.26 18.8017 16.69 17.6717 15.67ZM14.1017 18.14H10.4617C10.0817 18.14 9.78172 17.83 9.78172 17.46C9.78172 17.09 10.0917 16.78 10.4617 16.78H14.1017C14.4817 16.78 14.7817 17.09 14.7817 17.46C14.7817 17.83 14.4717 18.14 14.1017 18.14Z" fill="currentColor"/>
<path d="M18.6319 4.32C18.0819 2.91 16.7419 2 15.2319 2H9.33188C7.82188 2 6.48188 2.91 5.93188 4.32C5.39188 5.74 5.76188 7.31 6.89188 8.33L10.9319 12H13.6419L17.6819 8.33C18.8019 7.31 19.1719 5.74 18.6319 4.32ZM14.1019 7.23H10.4619C10.0819 7.23 9.78188 6.92 9.78188 6.55C9.78188 6.18 10.0919 5.87 10.4619 5.87H14.1019C14.4819 5.87 14.7819 6.18 14.7819 6.55C14.7819 6.92 14.4719 7.23 14.1019 7.23Z" fill="currentColor"/>
</svg>

<svg xmlns="http://www.w3.org/2000/svg" width="24" height="24" viewBox="0 0 24 24" fill="none"><path fill="currentColor" d="M17.672 15.67 13.632 12h-2.71l-4.04 3.67a3.602 3.602 0 0 0-.95 4.01 3.63 3.63 0 0 0 3.4 2.32h5.89c1.52 0 2.85-.91 3.4-2.32.55-1.42.18-2.99-.95-4.01Zm-3.57 2.47h-3.64a.68.68 0 0 1-.68-.68c0-.37.31-.68.68-.68h3.64c.38 0 .68.31.68.68 0 .37-.31.68-.68.68ZM18.632 4.32a3.63 3.63 0 0 0-3.4-2.32h-5.9a3.63 3.63 0 0 0-2.44 6.33l4.04 3.67h2.71l4.04-3.67a3.635 3.635 0 0 0 .95-4.01Zm-4.53 2.91h-3.64a.68.68 0 0 1-.68-.68c0-.37.31-.68.68-.68h3.64c.38 0 .68.31.68.68 0 .37-.31.68-.68.68Z"/></svg>
